X: 2
T: Over The Moor To Maggie
Z: slainte
S: https://thesession.org/tunes/115#setting12703
R: reel
M: 4/4
L: 1/8
K: Gmaj
BA|~G3A BABd|efge dBAG|E~A3 BGAG|EAAG A2BA|~G3A BABd|efge dBAG|E~G3 B2AG|EGGF G2:|ga|b~g3 agef|~g3e d2Bd|e~a3 b2ag|eaag a2ga|b~g3 agef|~g3e d2Bd|e~g3 bgag|eggf g2:|Bd|e3c d2dB|c3A B2AG|E~A3 BGAG|EAAG A2Bd|efge d~B3|c~A3 B2AG|E~G3 B2AG|EGGF G2:|
